assets/skill/front-html.svg

<svg width="58" height="57" viewBox="0 0 58 57" fill="none" xmlns="http://www.w3.org/2000/svg">
<rect x="0.620972" width="56.7516" height="56.7516" rx="8.25478" fill="url(#paint0_linear_92_633)"/>
<path d="M12.7492 46.5381L9.13379 5.67529H48.8599L45.2397 46.5316L28.9727 51.0766L12.7492 46.5381Z" fill="#E44F26"/>
<path d="M29.2549 47.4652L42.2026 43.8314L45.2485 9.28687H29.2549V47.4652Z" fill="#F1662A"/>
<path d="M29.2548 24.2895H22.7203L22.2697 19.0486H29.2548V13.9302H29.2373H16.8727L16.9909 15.3046L18.2036 29.4079H29.2548V24.2895Z" fill="#EBEBEB"/>
<path d="M29.2549 37.028L29.2326 37.0345L23.7314 35.5118L23.3798 31.4714H20.706H18.4205L19.1126 39.4243L29.2326 42.3058L29.2549 42.2993V37.028Z" fill="#EBEBEB"/>
<path d="M29.2549 24.2485V29.2116H35.2673L34.7018 35.6488L29.2549 37.142V42.3059L39.2656 39.4847L39.3383 38.6465L40.4851 25.5812L40.6052 24.2485H39.2893H29.2549Z" fill="white"/>
<path d="M29.2549 13.9302V17.1349V19.0777V19.0894H41.1781H41.1941L41.2932 17.931L41.5187 15.3155L41.637 13.9302H29.2549Z" fill="white"/>
<defs>
<linearGradient id="paint0_linear_92_633" x1="28.9968" y1="0" x2="28.9968" y2="56.7516" gradientUnits="userSpaceOnUse">
<stop stop-color="#FDFDFD"/>
<stop offset="1" stop-color="#F5F4F4"/>
</linearGradient>
</defs>
</svg>

<svg xmlns="http://www.w3.org/2000/svg" width="58" height="57" fill="none" viewBox="0 0 58 57"><rect width="56.752" height="56.752" x=".621" fill="url(#paint0_linear_92_633)" rx="8.255"/><path fill="#e44f26" d="M12.75 46.538 9.133 5.675H48.86l-3.62 40.857-16.267 4.545z"/><path fill="#f1662a" d="m29.255 47.465 12.948-3.634 3.045-34.544H29.255z"/><path fill="#ebebeb" d="M29.255 24.29H22.72l-.45-5.241h6.985V13.93H16.873l.118 1.375 1.213 14.103h11.05zm0 12.738-.022.007-5.502-1.523-.351-4.04h-4.96l.692 7.952 10.12 2.882.022-.007z"/><path fill="#fff" d="M29.255 24.249v4.963h6.012l-.565 6.437-5.447 1.493v5.164l10.01-2.821.073-.838 1.147-13.066.12-1.332zm0-10.319v5.159h11.939l.1-1.158.225-2.616.118-1.385z"/><defs><linearGradient id="paint0_linear_92_633" x1="28.997" x2="28.997" y1="0" y2="56.752" gradientUnits="userSpaceOnUse"><stop stop-color="#fdfdfd"/><stop offset="1" stop-color="#f5f4f4"/></linearGradient></defs></svg>
